X: 48
M:3/4
L:1/8
K:G
"Andante con Sentimente" (3EFG|A2 A2 dc|B2 G2 (3AGE|(3DEF G2 G2|
c2 BA B2|E4 (3EFG|A2 A2 dc|B2 G2 (3AGE|(3DEF G2 G2|G4||

